!!!OTL: Ach Elslein
!!!ARE: Europa, Mitteleuropa, Deutschland
!!!SCT: L0083A
!!!YEM: Copyright 1995, estate of Helmut Schaffrath.
**kern
*ICvox
*Ivox
*M3/4
*k[b-e-]
*g:
{4g
=1
2g
4b-
=2
2a
4g
=3
4.a
8b-
4cc
=4
2dd}
{4dd
=5
2cc
4a
=6
4b-
2g
=7
2fn}
{4fn
=8
2a
4b-
=9
2cc
4b-
=10
4.g
8a
4b-
=11
2a}
{4g
=12
4fn
2d
=13
2g
4f#
=14
2g}
{4g
=15
4fn
2d
=16
2g
4f#
=17
2.g}
==
!!!AGN: Lied
!! Joh. Ott 1534 No. 37
!!!ONB: ESAC (Essen Associative Code) Database: ERK5
!!!AMT: simple triple
!!!AIN: vox
!!!EED: Helmut Schaffrath
!!!EEV: 1.0
*-
